X:1
T: Miss Grant of Elchies' Strathspey
C:William Marshall
R:Strathspey
Q: 128
K:F
M:4/4
L:1/16
|:F3G BAGF cA3 dB3|f3d c3A G2GG G4|F3G BAGF cA3 dB3|f3d c3A FFF2 F4|
F3G BAGF cA3 dB3|f3d c3A G2GG G4|F3G BAGF cA3 dB3|f3d c3A FFF2 F4|
f3g bagf cf3 af3|b3g a3f ggg2 g4|f3g bagf cf3 af3|b3g a3e fff2 f4|
f3g bagf cf3 af3|b3g a3f ggg2 g4|cf3 dcBA df3 dB3|c3B A3G FFF2 F4:|
